src/pos-icons/progress-upload.svg

<svg height="24" viewBox="0 0 24 24" width="24" xmlns="http://www.w3.org/2000/svg"><path d="m13 2.03c4.73.47 8.5 4.22 8.95 8.97.55 5.5-3.45 10.38-8.95 10.93v-2c3.64-.43 6.5-3.32 6.96-6.96.54-4.39-2.57-8.38-6.96-8.92v-2zm-2 .03v2c-1.43.2-2.78.78-3.9 1.68l-1.43-1.48c1.52-1.26 3.38-2.01 5.33-2.2m-6.74 3.61 1.43 1.43c-.89 1.13-1.45 2.48-1.64 3.9h-2c.2-1.96.95-3.81 2.21-5.33m-2.2 7.33h2c.18 1.42.75 2.77 1.63 3.9l-1.42 1.43c-1.24-1.52-2.01-3.37-2.21-5.33m5.04 5.37c1.13.88 2.48 1.45 3.9 1.63v2c-1.96-.21-3.82-1-5.33-2.26zm4.9-10.87-4.5 4.5h3.5v4h2v-4h3.5z"/></svg>

<?xml version="1.0" encoding="UTF-8"?><!DOCTYPE svg PUBLIC "-//W3C//DTD SVG 1.1//EN" "http://www.w3.org/Graphics/SVG/1.1/DTD/svg11.dtd"><svg xmlns="http://www.w3.org/2000/svg" xmlns:xlink="http://www.w3.org/1999/xlink" version="1.1" id="mdi-progress-upload" width="24" height="24" viewBox="0 0 24 24"><path d="M13,2.03C17.73,2.5 21.5,6.25 21.95,11C22.5,16.5 18.5,21.38 13,21.93V19.93C16.64,19.5 19.5,16.61 19.96,12.97C20.5,8.58 17.39,4.59 13,4.05V2.05L13,2.03M11,2.06V4.06C9.57,4.26 8.22,4.84 7.1,5.74L5.67,4.26C7.19,3 9.05,2.25 11,2.06M4.26,5.67L5.69,7.1C4.8,8.23 4.24,9.58 4.05,11H2.05C2.25,9.04 3,7.19 4.26,5.67M2.06,13H4.06C4.24,14.42 4.81,15.77 5.69,16.9L4.27,18.33C3.03,16.81 2.26,14.96 2.06,13M7.1,18.37C8.23,19.25 9.58,19.82 11,20V22C9.04,21.79 7.18,21 5.67,19.74L7.1,18.37M12,7.5L7.5,12H11V16H13V12H16.5L12,7.5Z" /></svg>
